cryptify-front-end/src/resources/irma-logo.svg

<svg viewBox="0 0 170 170" xmlns="http://www.w3.org/2000/svg" xml:space="preserve" style="fill-rule:evenodd;clip-rule:evenodd;stroke-linejoin:round;stroke-miterlimit:1.41421"><path d="M33.906 116.205c-3.917 0-7.339-2.339-8.517-5.82L4.684 49.145c-1.55-4.582 1.201-9.669 6.132-11.34l98.562-33.4a10.089 10.089 0 0 1 3.241-.539c3.917 0 7.34 2.339 8.518 5.821l20.705 61.239c1.55 4.581-1.201 9.669-6.132 11.341l-98.563 33.399a10.057 10.057 0 0 1-3.241.539Z" style="fill:#d44454;fill-rule:nonzero" transform="matrix(1 0 0 1 9.725 40.84)"/><path d="M112.619 7.116c2.465 0 4.683 1.376 5.438 3.612l20.705 61.239c.978 2.89-.856 6.123-4.097 7.222l-98.562 33.399a6.836 6.836 0 0 1-2.198.366c-2.465 0-4.683-1.376-5.439-3.611L7.762 48.104c-.978-2.89.857-6.124 4.097-7.221l98.562-33.4a6.834 6.834 0 0 1 2.198-.367m0-6.5c-1.452 0-2.894.239-4.284.71l-98.562 33.4c-6.628 2.246-10.292 9.181-8.168 15.46l20.705 61.238c1.625 4.803 6.285 8.029 11.597 8.029a13.31 13.31 0 0 0 4.285-.71l98.561-33.399c6.628-2.247 10.292-9.183 8.168-15.461L124.214 8.646c-1.624-4.803-6.284-8.03-11.595-8.03Z" style="fill:#d44454;fill-rule:nonzero" transform="matrix(1 0 0 1 9.725 40.84)"/><path d="M33.906 116.205c-3.917 0-7.339-2.339-8.517-5.82L4.684 49.145c-1.55-4.582 1.201-9.669 6.132-11.34l98.562-33.4a10.089 10.089 0 0 1 3.241-.539c3.917 0 7.34 2.339 8.518 5.821l20.705 61.239c1.55 4.581-1.201 9.669-6.132 11.341l-98.563 33.399a10.057 10.057 0 0 1-3.241.539Z" style="fill:#ffbb58;fill-rule:nonzero" transform="matrix(1 0 0 1 14.499 9.09)"/><path d="M112.619 7.116c2.465 0 4.683 1.376 5.438 3.612l20.705 61.239c.978 2.89-.856 6.123-4.097 7.222l-98.562 33.399a6.836 6.836 0 0 1-2.198.366c-2.465 0-4.683-1.376-5.439-3.611L7.762 48.104c-.978-2.89.857-6.124 4.097-7.221l98.562-33.4a6.834 6.834 0 0 1 2.198-.367m0-6.5c-1.452 0-2.894.239-4.284.71l-98.562 33.4c-6.628 2.246-10.292 9.181-8.168 15.46l20.705 61.238c1.625 4.803 6.285 8.029 11.597 8.029a13.31 13.31 0 0 0 4.285-.71l98.561-33.399c6.628-2.247 10.292-9.183 8.168-15.461L124.214 8.646c-1.624-4.803-6.284-8.03-11.595-8.03Z" style="fill:#ffbb58;fill-rule:nonzero" transform="matrix(1 0 0 1 14.499 9.09)"/><path d="M33.906 116.205c-3.917 0-7.339-2.339-8.517-5.82L4.684 49.145c-1.55-4.582 1.201-9.669 6.132-11.34l98.562-33.4a10.089 10.089 0 0 1 3.241-.539c3.917 0 7.34 2.339 8.518 5.821l20.705 61.239c1.55 4.581-1.201 9.669-6.132 11.341l-98.563 33.399a10.057 10.057 0 0 1-3.241.539Z" style="fill:#2bc194;fill-rule:nonzero" transform="rotate(10.224 -46.79 57.342)"/><path d="M112.619 7.116c2.465 0 4.683 1.376 5.438 3.612l20.705 61.239c.978 2.89-.856 6.123-4.097 7.222l-98.562 33.399a6.836 6.836 0 0 1-2.198.366c-2.465 0-4.683-1.376-5.439-3.611L7.762 48.104c-.978-2.89.857-6.124 4.097-7.221l98.562-33.4a6.834 6.834 0 0 1 2.198-.367m0-6.5c-1.452 0-2.894.239-4.284.71l-98.562 33.4c-6.628 2.246-10.292 9.181-8.168 15.46l20.705 61.238c1.625 4.803 6.285 8.029 11.597 8.029a13.31 13.31 0 0 0 4.285-.71l98.561-33.399c6.628-2.247 10.292-9.183 8.168-15.461L124.214 8.646c-1.624-4.803-6.284-8.03-11.595-8.03Z" style="fill:#2bc194;fill-rule:nonzero" transform="rotate(10.224 -46.79 57.342)"/><path d="M33.906 116.205c-3.917 0-7.339-2.339-8.517-5.82L4.684 49.145c-1.55-4.582 1.201-9.669 6.132-11.34l98.562-33.4a10.089 10.089 0 0 1 3.241-.539c3.917 0 7.34 2.339 8.518 5.821l20.705 61.239c1.55 4.581-1.201 9.669-6.132 11.341l-98.563 33.399a10.057 10.057 0 0 1-3.241.539Z" style="fill:#00b1e6;fill-rule:nonzero" transform="rotate(9.65 -95.472 227.114)"/><path d="M112.619 7.116c2.465 0 4.683 1.376 5.438 3.612l20.705 61.239c.978 2.89-.856 6.123-4.097 7.222l-98.562 33.399a6.836 6.836 0 0 1-2.198.366c-2.465 0-4.683-1.376-5.439-3.611L7.762 48.104c-.978-2.89.857-6.124 4.097-7.221l98.562-33.4a6.834 6.834 0 0 1 2.198-.367m0-6.5c-1.452 0-2.894.239-4.284.71l-98.562 33.4c-6.628 2.246-10.292 9.181-8.168 15.46l20.705 61.238c1.625 4.803 6.285 8.029 11.597 8.029a13.31 13.31 0 0 0 4.285-.71l98.561-33.399c6.628-2.247 10.292-9.183 8.168-15.461L124.214 8.646c-1.624-4.803-6.284-8.03-11.595-8.03Z" style="fill:#00b1e6;fill-rule:nonzero" transform="rotate(9.65 -95.472 227.114)"/><path d="M33.906 116.205c-3.917 0-7.339-2.339-8.517-5.82L4.684 49.145c-1.55-4.582 1.201-9.669 6.132-11.34l98.562-33.4a10.089 10.089 0 0 1 3.241-.539c3.917 0 7.34 2.339 8.518 5.821l20.705 61.239c1.55 4.581-1.201 9.669-6.132 11.341l-98.563 33.399a10.057 10.057 0 0 1-3.241.539Z" style="fill:#004c92;fill-rule:nonzero" transform="translate(11.785 25.91)"/><path d="M112.619 7.116c2.465 0 4.683 1.376 5.438 3.612l20.705 61.239c.978 2.89-.856 6.123-4.097 7.222l-98.562 33.399a6.836 6.836 0 0 1-2.198.366c-2.465 0-4.683-1.376-5.439-3.611L7.762 48.104c-.978-2.89.857-6.124 4.097-7.221l98.562-33.4a6.834 6.834 0 0 1 2.198-.367m0-6.5c-1.452 0-2.894.239-4.284.71l-98.562 33.4c-6.628 2.246-10.292 9.181-8.168 15.46l20.705 61.238c1.625 4.803 6.285 8.029 11.597 8.029a13.31 13.31 0 0 0 4.285-.71l98.561-33.399c6.628-2.247 10.292-9.183 8.168-15.461L124.214 8.646c-1.624-4.803-6.284-8.03-11.595-8.03Z" style="fill:#fff;fill-rule:nonzero" transform="translate(11.785 25.91)"/><g transform="translate(11.785 25.91)"><clipPath id="a"><path d="m139.203 72.585-11.037-32.906 7.341-.336 11.133 31.978V0H0v120.72h146.64V73.073l-7.437-.488Z"/></clipPath><g clip-path="url(#a)"><path style="fill:#fff;fill-rule:nonzero" d="M42.199 40.296h6.083v32.149h-6.083zM55.331 40.296h11.153c3.283 0 5.954.964 8.014 2.894 2.061 1.929 3.092 4.317 3.092 7.165 0 2.021-.564 3.835-1.691 5.442-1.125 1.607-2.654 2.809-4.585 3.605l7.482 13.043h-6.71L65.568 60.32h-4.153v12.125h-6.083V40.296h-.001Zm11.153 5.328h-5.069v9.369h5.069c1.448 0 2.607-.429 3.476-1.286.869-.857 1.304-1.99 1.304-3.398 0-1.378-.435-2.503-1.304-3.376-.869-.873-2.028-1.309-3.476-1.309ZM101.017 63.91l-5.016-.017-6.489-11.415v19.966h-6.083V40.296h5.407l9.655 17.13 9.705-17.13h5.359v32.149h-6.083V52.513l-6.455 11.397ZM139.772 72.445l-2.164-6.843h-11.507l-2.165 6.843h-6.614l11.442-32.149h6.133l11.441 32.149h-6.566Zm-7.918-24.939-4.258 13.365h8.516l-4.258-13.365Z"/></g></g></svg>

<?xml version="1.0" encoding="UTF-8" standalone="no"?>
<!DOCTYPE svg PUBLIC "-//W3C//DTD SVG 1.1//EN" "http://www.w3.org/Graphics/SVG/1.1/DTD/svg11.dtd">
<svg width="100%" height="100%" viewBox="0 0 170 170" version="1.1" xmlns="http://www.w3.org/2000/svg" xmlns:xlink="http://www.w3.org/1999/xlink" xml:space="preserve" xmlns:serif="http://www.serif.com/" style="fill-rule:evenodd;clip-rule:evenodd;stroke-linejoin:round;stroke-miterlimit:1.41421;">
    <g transform="matrix(1,0,0,1,-0.588574,-0.544313)">
        <g id="Rounded_Rectangle_1_1_" transform="matrix(0.945114,-0.32674,0.32674,0.945114,-8.94903,58.0541)">
            <g transform="matrix(0.945114,0.32674,-0.32674,0.945114,23.6518,-9.46055)">
                <path d="M33.906,116.205C29.989,116.205 26.567,113.866 25.389,110.385L4.684,49.145C3.134,44.563 5.885,39.476 10.816,37.805L109.378,4.405C110.432,4.048 111.523,3.866 112.619,3.866C116.536,3.866 119.959,6.205 121.137,9.687L141.842,70.926C143.392,75.507 140.641,80.595 135.71,82.267L37.147,115.666C36.093,116.024 35.003,116.205 33.906,116.205L33.906,116.205Z" style="fill:#d44454;fill-rule:nonzero;"/>
                <path d="M112.619,7.116C115.084,7.116 117.302,8.492 118.057,10.728L138.762,71.967C139.74,74.857 137.906,78.09 134.665,79.189L36.103,112.588C35.369,112.837 34.627,112.954 33.905,112.954C31.44,112.954 29.222,111.578 28.466,109.343L7.762,48.104C6.784,45.214 8.619,41.98 11.859,40.883L110.421,7.483C111.154,7.234 111.897,7.116 112.619,7.116M112.619,0.616C111.167,0.616 109.725,0.855 108.335,1.326L9.773,34.726C3.145,36.972 -0.519,43.907 1.605,50.186L22.31,111.424C23.935,116.227 28.595,119.453 33.907,119.453C35.359,119.453 36.801,119.215 38.192,118.743L136.753,85.344C143.381,83.097 147.045,76.161 144.921,69.883L124.214,8.646C122.59,3.843 117.93,0.616 112.619,0.616Z" style="fill:#d44454;fill-rule:nonzero;"/>
            </g>
            <g transform="matrix(0.945114,0.32674,-0.32674,0.945114,38.5375,-37.9081)">
                <path d="M33.906,116.205C29.989,116.205 26.567,113.866 25.389,110.385L4.684,49.145C3.134,44.563 5.885,39.476 10.816,37.805L109.378,4.405C110.432,4.048 111.523,3.866 112.619,3.866C116.536,3.866 119.959,6.205 121.137,9.687L141.842,70.926C143.392,75.507 140.641,80.595 135.71,82.267L37.147,115.666C36.093,116.024 35.003,116.205 33.906,116.205L33.906,116.205Z" style="fill:#ffbb58;fill-rule:nonzero;"/>
                <path d="M112.619,7.116C115.084,7.116 117.302,8.492 118.057,10.728L138.762,71.967C139.74,74.857 137.906,78.09 134.665,79.189L36.103,112.588C35.369,112.837 34.627,112.954 33.905,112.954C31.44,112.954 29.222,111.578 28.466,109.343L7.762,48.104C6.784,45.214 8.619,41.98 11.859,40.883L110.421,7.483C111.154,7.234 111.897,7.116 112.619,7.116M112.619,0.616C111.167,0.616 109.725,0.855 108.335,1.326L9.773,34.726C3.145,36.972 -0.519,43.907 1.605,50.186L22.31,111.424C23.935,116.227 28.595,119.453 33.907,119.453C35.359,119.453 36.801,119.215 38.192,118.743L136.753,85.344C143.381,83.097 147.045,76.161 144.921,69.883L124.214,8.646C122.59,3.843 117.93,0.616 112.619,0.616Z" style="fill:#ffbb58;fill-rule:nonzero;"/>
            </g>
            <g transform="matrix(0.872113,0.489304,-0.489304,0.872113,33.7109,-39.4445)">
                <path d="M33.906,116.205C29.989,116.205 26.567,113.866 25.389,110.385L4.684,49.145C3.134,44.563 5.885,39.476 10.816,37.805L109.378,4.405C110.432,4.048 111.523,3.866 112.619,3.866C116.536,3.866 119.959,6.205 121.137,9.687L141.842,70.926C143.392,75.507 140.641,80.595 135.71,82.267L37.147,115.666C36.093,116.024 35.003,116.205 33.906,116.205L33.906,116.205Z" style="fill:#2bc194;fill-rule:nonzero;"/>
                <path d="M112.619,7.116C115.084,7.116 117.302,8.492 118.057,10.728L138.762,71.967C139.74,74.857 137.906,78.09 134.665,79.189L36.103,112.588C35.369,112.837 34.627,112.954 33.905,112.954C31.44,112.954 29.222,111.578 28.466,109.343L7.762,48.104C6.784,45.214 8.619,41.98 11.859,40.883L110.421,7.483C111.154,7.234 111.897,7.116 112.619,7.116M112.619,0.616C111.167,0.616 109.725,0.855 108.335,1.326L9.773,34.726C3.145,36.972 -0.519,43.907 1.605,50.186L22.31,111.424C23.935,116.227 28.595,119.453 33.907,119.453C35.359,119.453 36.801,119.215 38.192,118.743L136.753,85.344C143.381,83.097 147.045,76.161 144.921,69.883L124.214,8.646C122.59,3.843 117.93,0.616 112.619,0.616Z" style="fill:#2bc194;fill-rule:nonzero;"/>
            </g>
            <g transform="matrix(0.876971,0.480544,-0.480544,0.876971,56.23,-21.0767)">
                <path d="M33.906,116.205C29.989,116.205 26.567,113.866 25.389,110.385L4.684,49.145C3.134,44.563 5.885,39.476 10.816,37.805L109.378,4.405C110.432,4.048 111.523,3.866 112.619,3.866C116.536,3.866 119.959,6.205 121.137,9.687L141.842,70.926C143.392,75.507 140.641,80.595 135.71,82.267L37.147,115.666C36.093,116.024 35.003,116.205 33.906,116.205L33.906,116.205Z" style="fill:#00b1e6;fill-rule:nonzero;"/>
                <path d="M112.619,7.116C115.084,7.116 117.302,8.492 118.057,10.728L138.762,71.967C139.74,74.857 137.906,78.09 134.665,79.189L36.103,112.588C35.369,112.837 34.627,112.954 33.905,112.954C31.44,112.954 29.222,111.578 28.466,109.343L7.762,48.104C6.784,45.214 8.619,41.98 11.859,40.883L110.421,7.483C111.154,7.234 111.897,7.116 112.619,7.116M112.619,0.616C111.167,0.616 109.725,0.855 108.335,1.326L9.773,34.726C3.145,36.972 -0.519,43.907 1.605,50.186L22.31,111.424C23.935,116.227 28.595,119.453 33.907,119.453C35.359,119.453 36.801,119.215 38.192,118.743L136.753,85.344C143.381,83.097 147.045,76.161 144.921,69.883L124.214,8.646C122.59,3.843 117.93,0.616 112.619,0.616Z" style="fill:#00b1e6;fill-rule:nonzero;"/>
            </g>
        </g>
        <g id="Rounded_Rectangle_1_1_1" serif:id="Rounded_Rectangle_1_1_" transform="matrix(1,0,0,1,12.3739,26.4544)">
            <g>
                <path d="M33.906,116.205C29.989,116.205 26.567,113.866 25.389,110.385L4.684,49.145C3.134,44.563 5.885,39.476 10.816,37.805L109.378,4.405C110.432,4.048 111.523,3.866 112.619,3.866C116.536,3.866 119.959,6.205 121.137,9.687L141.842,70.926C143.392,75.507 140.641,80.595 135.71,82.267L37.147,115.666C36.093,116.024 35.003,116.205 33.906,116.205L33.906,116.205Z" style="fill:#004c92;fill-rule:nonzero;"/>
                <path d="M112.619,7.116C115.084,7.116 117.302,8.492 118.057,10.728L138.762,71.967C139.74,74.857 137.906,78.09 134.665,79.189L36.103,112.588C35.369,112.837 34.627,112.954 33.905,112.954C31.44,112.954 29.222,111.578 28.466,109.343L7.762,48.104C6.784,45.214 8.619,41.98 11.859,40.883L110.421,7.483C111.154,7.234 111.897,7.116 112.619,7.116M112.619,0.616C111.167,0.616 109.725,0.855 108.335,1.326L9.773,34.726C3.145,36.972 -0.519,43.907 1.605,50.186L22.31,111.424C23.935,116.227 28.595,119.453 33.907,119.453C35.359,119.453 36.801,119.215 38.192,118.743L136.753,85.344C143.381,83.097 147.045,76.161 144.921,69.883L124.214,8.646C122.59,3.843 117.93,0.616 112.619,0.616Z" style="fill:#fff;fill-rule:nonzero;"/>
            </g>
        </g>
        <g id="IRMA_1_" transform="matrix(1,0,0,1,12.3739,26.4544)">
            <clipPath id="_clip1">
                <path d="M139.203,72.585L128.166,39.679L135.507,39.343L146.64,71.321L146.64,0L0,0L0,120.72L146.64,120.72L146.64,73.073L139.203,72.585Z"/>
            </clipPath>
            <g clip-path="url(#_clip1)">
                <rect x="42.199" y="40.296" width="6.083" height="32.149" style="fill:#fff;fill-rule:nonzero;"/>
                <path d="M55.331,40.296L66.484,40.296C69.767,40.296 72.438,41.26 74.498,43.19C76.559,45.119 77.59,47.507 77.59,50.355C77.59,52.376 77.026,54.19 75.899,55.797C74.774,57.404 73.245,58.606 71.314,59.402L78.796,72.445L72.086,72.445L65.568,60.32L61.415,60.32L61.415,72.445L55.332,72.445L55.332,40.296L55.331,40.296ZM66.484,45.624L61.415,45.624L61.415,54.993L66.484,54.993C67.932,54.993 69.091,54.564 69.96,53.707C70.829,52.85 71.264,51.717 71.264,50.309C71.264,48.931 70.829,47.806 69.96,46.933C69.091,46.06 67.932,45.624 66.484,45.624Z" style="fill:#fff;fill-rule:nonzero;"/>
                <path d="M101.017,63.91L96.001,63.893L89.512,52.478L89.512,72.444L83.429,72.444L83.429,40.296L88.836,40.296L98.491,57.426L108.196,40.296L113.555,40.296L113.555,72.445L107.472,72.445L107.472,52.513L101.017,63.91Z" style="fill:#fff;fill-rule:nonzero;"/>
                <path d="M139.772,72.445L137.608,65.602L126.101,65.602L123.936,72.445L117.322,72.445L128.764,40.296L134.897,40.296L146.338,72.445L139.772,72.445ZM131.854,47.506L127.596,60.871L136.112,60.871L131.854,47.506Z" style="fill:#fff;fill-rule:nonzero;"/>
            </g>
        </g>
    </g>
</svg>
